X:1
T: The Deuks dang ow're my Daddie
T: Just as I was in the Morning
R:Jig
Q:180
K:D
M:6/8
L:1/16
|:fe|d4A2 F4D2|E2F2E2 c2B2c2|d4A2 F4E2|F2D2D2 D4fe|
d4A2 F4D2|E2F2E2 c2B2c2|d4A2 F4E2|F2D2D2 D4:|
|:A2|d2c2d2 B2c2d2|e2f2d2 c2B2A2|d2c2d2 e2f2g2|f2d2d2 d4ef|
g2f2g2 B2c2d2|e2f2d2 c2B2A2|d4A2 G2F2E2|F2D2D2 D4:|
